Sources/FrostedUI/Resources/Icons.xcassets/fullScreen24.imageset/full-screen-24.svg

<svg width="24" height="24" viewBox="0 0 24 24" fill="none" xmlns="http://www.w3.org/2000/svg" data-fui-icon="true">
  <path
    d="M2.5 14.71C2.91411 14.71 3.24984 15.0459 3.25 15.46V17C3.25 19.0711 4.92893 20.75 7 20.75H8.2002C8.61432 20.7501 8.9502 21.0859 8.9502 21.5C8.9502 21.9142 8.61432 22.2499 8.2002 22.25H7C4.10051 22.25 1.75 19.8995 1.75 17V15.46C1.75016 15.0459 2.08589 14.71 2.5 14.71ZM21.5 14.71C21.9141 14.71 22.2498 15.0459 22.25 15.46V17C22.25 19.8995 19.8995 22.25 17 22.25H15.7998C15.3857 22.2499 15.0498 21.9142 15.0498 21.5C15.0498 21.0859 15.3857 20.7501 15.7998 20.75H17C19.0711 20.75 20.75 19.0711 20.75 17V15.46C20.7502 15.0459 21.0859 14.71 21.5 14.71ZM8.2002 1.75C8.61432 1.75011 8.9502 2.08585 8.9502 2.5C8.9502 2.91415 8.61432 3.24989 8.2002 3.25H7C4.92893 3.25 3.25 4.92893 3.25 7V8.41406C3.24992 8.82821 2.91416 9.16406 2.5 9.16406C2.08584 9.16406 1.75008 8.82821 1.75 8.41406V7C1.75 4.1005 4.10051 1.75 7 1.75H8.2002ZM17 1.75C19.8995 1.75 22.25 4.10051 22.25 7V8.41406C22.2499 8.82821 21.9142 9.16406 21.5 9.16406C21.0858 9.16406 20.7501 8.82821 20.75 8.41406V7C20.75 4.92893 19.0711 3.25 17 3.25H15.7998C15.3857 3.24989 15.0498 2.91415 15.0498 2.5C15.0498 2.08585 15.3857 1.75011 15.7998 1.75H17Z"
    fill="currentColor"
  />
</svg>

<svg xmlns="http://www.w3.org/2000/svg" width="24" height="24" fill="none" data-fui-icon="true" viewBox="0 0 24 24"><path fill="currentColor" d="M2.5 14.71a.75.75 0 0 1 .75.75V17A3.75 3.75 0 0 0 7 20.75h1.2a.75.75 0 0 1 0 1.5H7A5.25 5.25 0 0 1 1.75 17v-1.54a.75.75 0 0 1 .75-.75m19 0a.75.75 0 0 1 .75.75V17c0 2.9-2.35 5.25-5.25 5.25h-1.2a.75.75 0 0 1 0-1.5H17A3.75 3.75 0 0 0 20.75 17v-1.54a.75.75 0 0 1 .75-.75M8.2 1.75a.75.75 0 0 1 0 1.5H7A3.75 3.75 0 0 0 3.25 7v1.414a.75.75 0 0 1-1.5 0V7C1.75 4.1 4.1 1.75 7 1.75zm8.8 0c2.9 0 5.25 2.35 5.25 5.25v1.414a.75.75 0 0 1-1.5 0V7A3.75 3.75 0 0 0 17 3.25h-1.2a.75.75 0 0 1 0-1.5z"/></svg>
